X:100
T:Wise Maid, The
S:The Session: https://thesession.org/tunes/118#setting55404
C:Traditional
R:reel
K:D
M:4/4
L:1/8
Q:1/4=120
DE|:"D"F2FG FEDE|FAAB AFED|d2eg fdec|"G"dBAF "A"BE~E2|
|"D"F2FG FEDE|FAAB AFED|d2eg "G"fdec|"A"dBAG "D"FD D2:|
|:"D"d2AG FDFA|dfaf "A"gfeg|"D"fAdf "A"eAce|"G"dfed "A"cA ~A2|
|"G"BDGB "D"ADFA|dfaf gfed|"G"Bdce dBAG|"A"FGEF "D"D4:|

